public/figma-home/vector8.svg

<svg preserveAspectRatio="none" width="100%" height="100%" overflow="visible" style="display: block;" viewBox="0 0 18.7962 20.4724" fill="none" xmlns="http://www.w3.org/2000/svg">
<path id="Vector" fill-rule="evenodd" clip-rule="evenodd" d="M14.1751 0.527459C11.0289 -0.17582 7.76626 -0.17582 4.62008 0.527459L4.28108 0.602459C3.39586 0.799792 2.58277 1.23894 1.93235 1.871C1.28192 2.50307 0.819677 3.30325 0.597083 4.18246C-0.199028 7.32516 -0.199028 10.6168 0.597083 13.7595C0.809387 14.5979 1.23986 15.3653 1.84476 15.9835C2.44966 16.6018 3.20743 17.0489 4.04108 17.2795L4.50608 20.0555C4.52093 20.1436 4.55913 20.2262 4.61672 20.2945C4.6743 20.3629 4.74917 20.4146 4.83351 20.4442C4.91785 20.4738 5.00859 20.4803 5.09628 20.4629C5.18396 20.4455 5.26539 20.405 5.33208 20.3455L8.06308 17.9025C10.1132 18.0262 12.1705 17.8623 14.1751 17.4155L14.5151 17.3405C15.4003 17.1431 16.2134 16.704 16.8638 16.0719C17.5142 15.4399 17.9765 14.6397 18.1991 13.7605C18.9952 10.6178 18.9952 7.32616 18.1991 4.18346C17.9764 3.30412 17.514 2.50385 16.8634 1.87177C16.2128 1.2397 15.3995 0.800626 14.5141 0.603459L14.1751 0.527459ZM5.46408 4.10146C5.27823 4.07424 5.08866 4.11166 4.92708 4.20746H4.91308C4.53808 4.42746 4.20008 4.70446 3.91208 5.03046C3.67208 5.30746 3.54208 5.58746 3.50808 5.85746C3.48808 6.01746 3.50208 6.17946 3.54908 6.33246L3.56708 6.34246C3.83708 7.13546 4.18908 7.89846 4.61908 8.61646C5.17378 9.62479 5.85606 10.5575 6.64908 11.3915L6.67308 11.4255L6.71108 11.4535L6.73408 11.4805L6.76208 11.5045C7.59906 12.2998 8.53392 12.9853 9.54408 13.5445C10.6991 14.1735 11.4001 14.4705 11.8211 14.5945V14.6005C11.9441 14.6385 12.0561 14.6555 12.1691 14.6555C12.5278 14.6297 12.8674 14.4839 13.1331 14.2415C13.4581 13.9535 13.7331 13.6145 13.9471 13.2375V13.2305C14.1481 12.8505 14.0801 12.4925 13.7901 12.2495C13.2081 11.7399 12.5781 11.2878 11.9091 10.8995C11.4611 10.6565 11.0061 10.8035 10.8221 11.0495L10.4291 11.5455C10.2271 11.7915 9.86108 11.7575 9.86108 11.7575L9.85108 11.7635C7.12008 11.0665 6.39108 8.30146 6.39108 8.30146C6.39108 8.30146 6.35708 7.92546 6.61008 7.73346L7.10208 7.33746C7.33808 7.14546 7.50208 6.69146 7.24908 6.24346C6.86166 5.57489 6.41056 4.9453 5.90208 4.36346C5.79086 4.22684 5.63509 4.13373 5.46208 4.10046M10.0781 2.89946C9.94548 2.89946 9.8183 2.95214 9.72453 3.04591C9.63076 3.13967 9.57808 3.26685 9.57808 3.39946C9.57808 3.53207 9.63076 3.65924 9.72453 3.75301C9.8183 3.84678 9.94548 3.89946 10.0781 3.89946C11.3431 3.89946 12.3931 4.31246 13.2241 5.10446C13.6511 5.53746 13.9841 6.05046 14.2021 6.61246C14.4211 7.17546 14.5211 7.77646 14.4951 8.37846C14.4923 8.44412 14.5025 8.50968 14.5251 8.5714C14.5477 8.63312 14.5822 8.68978 14.6267 8.73816C14.7165 8.83587 14.8415 8.89389 14.9741 8.89946C15.1067 8.90503 15.2361 8.85769 15.3338 8.76786C15.4315 8.67803 15.4895 8.55307 15.4951 8.42046C15.5249 7.68002 15.402 6.94136 15.1341 6.25046C14.8649 5.55604 14.455 4.92482 13.9301 4.39646L13.9201 4.38646C12.8891 3.40146 11.5841 2.89946 10.0781 2.89946ZM10.0441 4.54346C9.91148 4.54346 9.7843 4.59614 9.69053 4.68991C9.59676 4.78367 9.54408 4.91085 9.54408 5.04346C9.54408 5.17607 9.59676 5.30324 9.69053 5.39701C9.7843 5.49078 9.91148 5.54346 10.0441 5.54346H10.0611C10.9731 5.60846 11.6371 5.91246 12.1021 6.41146C12.5791 6.92546 12.8261 7.56446 12.8071 8.35446C12.804 8.48707 12.8538 8.61546 12.9454 8.71138C13.037 8.80731 13.163 8.86291 13.2956 8.86596C13.4282 8.86901 13.5566 8.81926 13.6525 8.72764C13.7484 8.63603 13.804 8.51007 13.8071 8.37746C13.8311 7.34046 13.4971 6.44546 12.8351 5.73146V5.72946C12.1581 5.00346 11.2291 4.61946 10.1111 4.54446L10.0941 4.54246L10.0441 4.54346ZM10.0251 6.21846C9.95817 6.21256 9.89075 6.22019 9.82686 6.24092C9.76296 6.26165 9.7039 6.29504 9.65319 6.3391C9.60248 6.38316 9.56117 6.43698 9.53173 6.49736C9.50229 6.55773 9.48531 6.62342 9.48181 6.69051C9.47832 6.75759 9.48838 6.82469 9.51139 6.8878C9.5344 6.95091 9.56989 7.00874 9.61574 7.05783C9.66159 7.10692 9.71687 7.14626 9.77826 7.17352C9.83966 7.20077 9.90592 7.21538 9.97308 7.21646C10.3911 7.23846 10.6581 7.36446 10.8261 7.53346C10.9951 7.70346 11.1211 7.97646 11.1441 8.40346C11.1453 8.47056 11.1601 8.53672 11.1874 8.598C11.2148 8.65928 11.2542 8.71443 11.3033 8.76015C11.3525 8.80588 11.4103 8.84124 11.4734 8.86415C11.5364 8.88705 11.6035 8.89702 11.6705 8.89346C11.7375 8.8899 11.8031 8.87288 11.8634 8.84343C11.9237 8.81397 11.9775 8.77268 12.0215 8.72201C12.0655 8.67134 12.0989 8.61233 12.1196 8.5485C12.1403 8.48466 12.1479 8.41731 12.1421 8.35046C12.1101 7.75046 11.9221 7.22046 11.5371 6.83046C11.1501 6.44046 10.6231 6.25046 10.0251 6.21846Z" fill="var(--fill-0, white)"/>
</svg>

<svg xmlns="http://www.w3.org/2000/svg" fill="none" overflow="visible" preserveAspectRatio="none" style="display:block" viewBox="0 0 18.796 20.472"><path fill="var(--fill-0, white)" fill-rule="evenodd" d="M14.175.527a21.9 21.9 0 0 0-9.555 0l-.339.075a4.9 4.9 0 0 0-3.684 3.58 19.5 19.5 0 0 0 0 9.578 4.9 4.9 0 0 0 3.444 3.52l.465 2.775a.5.5 0 0 0 .826.29l2.731-2.442a22 22 0 0 0 6.112-.487l.34-.076a4.9 4.9 0 0 0 3.684-3.58 19.5 19.5 0 0 0 0-9.577 4.9 4.9 0 0 0-3.685-3.58zm-8.71 3.574a.82.82 0 0 0-.538.106h-.014c-.375.22-.713.497-1 .823-.24.277-.37.557-.405.827-.02.16-.006.322.041.475l.018.01c.27.793.622 1.556 1.052 2.274a13.4 13.4 0 0 0 2.03 2.776l.024.034.038.027.023.027.028.024a13.6 13.6 0 0 0 2.782 2.04c1.155.63 1.856.926 2.277 1.05v.007c.123.037.235.054.348.054a1.6 1.6 0 0 0 .964-.413c.325-.289.6-.628.814-1.005v-.007c.201-.38.133-.738-.157-.98a12 12 0 0 0-1.88-1.35c-.449-.244-.904-.097-1.088.15l-.393.495c-.202.246-.568.213-.568.213l-.01.006c-2.73-.697-3.46-3.463-3.46-3.463s-.034-.376.22-.568l.491-.396c.236-.192.4-.646.147-1.094a12 12 0 0 0-1.347-1.88.75.75 0 0 0-.44-.263m4.616-1.2a.5.5 0 1 0 0 1c1.265 0 2.315.412 3.146 1.204.427.433.76.946.978 1.508.22.563.32 1.164.293 1.766a.5.5 0 1 0 1 .042 5.4 5.4 0 0 0-1.565-4.024l-.01-.01C12.89 3.401 11.584 2.9 10.078 2.9m-.034 1.643a.5.5 0 1 0 0 1h.017c.912.065 1.576.37 2.041.868.477.514.724 1.153.705 1.943a.5.5 0 1 0 1 .023c.024-1.037-.31-1.932-.972-2.646V5.73c-.677-.726-1.606-1.11-2.724-1.185l-.017-.002zm-.019 1.675a.5.5 0 1 0-.052.998c.418.022.685.148.853.317.17.17.295.443.318.87a.5.5 0 1 0 .998-.053c-.032-.6-.22-1.13-.605-1.52-.387-.39-.914-.58-1.512-.612" clip-rule="evenodd"/></svg>
